public/img/old-svg/baggage.svg

<svg width="36" height="36" viewBox="0 0 36 36" fill="none" xmlns="http://www.w3.org/2000/svg">
<g clip-path="url(#clip0)">
<path d="M19.7428 0H16.2581C14.6597 0 13.3594 1.30036 13.3594 2.8987V6.33375H15.5064V2.8987C15.5064 2.48421 15.8436 2.14713 16.258 2.14713H19.7427C20.1572 2.14713 20.4943 2.48428 20.4943 2.8987V6.33375H22.6415V2.8987C22.6415 1.30036 21.3411 0 19.7428 0Z" fill="#EC824A"/>
<path d="M24.6567 8.48047H11.3437C10.2269 8.48047 9.31836 9.38905 9.31836 10.5058V29.1165C9.31836 30.2333 10.2269 31.1418 11.3437 31.1418H24.6567C25.7735 31.1418 26.682 30.2333 26.682 29.1165V10.5059C26.682 9.38905 25.7735 8.48047 24.6567 8.48047Z" fill="#EC824A"/>
<path d="M11.3428 33.2897C11.2618 33.2897 11.1815 33.2868 11.1016 33.2822V34.9268C11.1016 35.5196 11.5822 36.0003 12.1751 36.0003C12.768 36.0003 13.2486 35.5196 13.2486 34.9268V33.2897H11.3428Z" fill="#EC824A"/>
<path d="M24.6559 33.2897H22.75V34.9268C22.75 35.5196 23.2307 36.0003 23.8235 36.0003C24.4164 36.0003 24.8971 35.5196 24.8971 34.9268V33.2822C24.8172 33.2869 24.7369 33.2897 24.6559 33.2897Z" fill="#EC824A"/>
</g>
<defs>
<clipPath id="clip0">
<rect width="36" height="36" fill="white"/>
</clipPath>
</defs>
</svg>

<svg width="36" height="36" viewBox="0 0 36 36" fill="none" xmlns="http://www.w3.org/2000/svg"><g clip-path="url(#clip0)" fill="#EC824A"><path d="M19.743 0h-3.485a2.902 2.902 0 00-2.899 2.899v3.435h2.147V2.899c0-.415.338-.752.752-.752h3.485c.414 0 .751.337.751.752v3.435h2.148V2.899c0-1.599-1.3-2.899-2.9-2.899zm4.914 8.48H11.344a2.028 2.028 0 00-2.026 2.026v18.61c0 1.117.909 2.026 2.026 2.026h13.313a2.028 2.028 0 002.025-2.026v-18.61a2.028 2.028 0 00-2.025-2.026zM11.343 33.29c-.081 0-.162-.003-.241-.008v1.645a1.074 1.074 0 002.147 0V33.29h-1.906zm13.313 0H22.75v1.637a1.074 1.074 0 002.147 0v-1.645c-.08.005-.16.008-.241.008z"/></g><defs><clipPath id="clip0"><path fill="#fff" d="M0 0h36v36H0z"/></clipPath></defs></svg>
